src/catppuccin-frappe-yellow-cursors/wait-07.svg

<?xml version="1.0" encoding="UTF-8" standalone="no"?>
<svg
   id="svg5327"
   width="32"
   height="32"
   version="1.1"
   sodipodi:docname="wait-07.svg"
   inkscape:version="1.1.2 (0a00cf5339, 2022-02-04)"
   xmlns:inkscape="http://www.inkscape.org/namespaces/inkscape"
   xmlns:sodipodi="http://sodipodi.sourceforge.net/DTD/sodipodi-0.dtd"
   xmlns:xlink="http://www.w3.org/1999/xlink"
   xmlns="http://www.w3.org/2000/svg"
   xmlns:svg="http://www.w3.org/2000/svg">
  <sodipodi:namedview
     id="namedview39427"
     pagecolor="#ffffff"
     bordercolor="#666666"
     borderopacity="1.0"
     inkscape:pageshadow="2"
     inkscape:pageopacity="0.0"
     inkscape:pagecheckerboard="0"
     showgrid="false"
     inkscape:zoom="25.96875"
     inkscape:cx="16.019254"
     inkscape:cy="16.019254"
     inkscape:window-width="1896"
     inkscape:window-height="1020"
     inkscape:window-x="9"
     inkscape:window-y="45"
     inkscape:window-maximized="1"
     inkscape:current-layer="svg5327" />
  <defs
     id="defs5329">
    <filter
       id="filter837"
       style="color-interpolation-filters:sRGB"
       width="1.12"
       height="1.12"
       x="-.06"
       y="-.06">
      <feGaussianBlur
         id="feGaussianBlur839"
         stdDeviation=".55" />
    </filter>
    <filter
       id="filter855"
       style="color-interpolation-filters:sRGB"
       width="1.12"
       height="1.12"
       x="-.06"
       y="-.06">
      <feGaussianBlur
         id="feGaussianBlur857"
         stdDeviation=".4" />
    </filter>
    <linearGradient
       id="linearGradient832"
       x1="21"
       x2="25"
       y1="16"
       y2="28"
       gradientTransform="matrix(1.5384616,0,0,1.5384616,-18.615384,-18.615386)"
       gradientUnits="userSpaceOnUse"
       xlink:href="#linearGradient830" />
    <linearGradient
       id="linearGradient830">
      <stop
         id="stop826"
         style="stop-color:#ffffff;stop-opacity:1"
         offset="0" />
      <stop
         id="stop828"
         style="stop-color:#ffffff;stop-opacity:0"
         offset="1" />
    </linearGradient>
    <filter
       id="filter835"
       style="color-interpolation-filters:sRGB"
       width="1.1439984"
       height="1.1440002"
       x="-0.071999224"
       y="-0.072000092">
      <feGaussianBlur
         id="feGaussianBlur837"
         stdDeviation=".48" />
    </filter>
    <filter
       id="filter839"
       style="color-interpolation-filters:sRGB"
       width="1.144"
       height="1.144"
       x="-0.072000003"
       y="-0.072000003">
      <feGaussianBlur
         id="feGaussianBlur841"
         stdDeviation=".66" />
    </filter>
  </defs>
  <circle
     id="circle819"
     style="opacity:0.2;fill:#000000;fill-opacity:1;stroke:none;stroke-width:2.19999981;stroke-linecap:round;stroke-linejoin:round;stroke-miterlimit:4;stroke-dasharray:none;stroke-opacity:1;filter:url(#filter839)"
     cx="16.5"
     cy="16.5"
     r="11" />
  <circle
     id="path818"
     style="opacity:1;fill:#303446;fill-opacity:1;stroke:none;stroke-width:2.19999981;stroke-linecap:round;stroke-linejoin:round;stroke-miterlimit:4;stroke-dasharray:none;stroke-opacity:1"
     cx="16"
     cy="16"
     r="11" />
  <circle
     id="circle824"
     style="opacity:1;fill:#E5C890;fill-opacity:1;stroke:none;stroke-width:1.99999988;stroke-linecap:round;stroke-linejoin:round;stroke-miterlimit:4;stroke-dasharray:none;stroke-opacity:1"
     cx="16"
     cy="16"
     r="10" />
  <path
     id="path824"
     style="opacity:0.2;fill:#E5C890;fill-opacity:1;stroke:none;stroke-width:3.63636;stroke-linecap:round;stroke-linejoin:round;stroke-miterlimit:4;stroke-dasharray:none;stroke-opacity:1"
     d="M 26,16 A 10,10 0 0 1 16,26 10,10 0 0 1 6,16 10,10 0 0 1 16,6.0000002 10,10 0 0 1 26,16 Z" />
  <path
     id="path821"
     style="color:#000000;font-style:normal;font-variant:normal;font-weight:normal;font-stretch:normal;font-size:medium;line-height:normal;font-family:sans-serif;font-variant-ligatures:normal;font-variant-position:normal;font-variant-caps:normal;font-variant-numeric:normal;font-variant-alternates:normal;font-feature-settings:normal;text-indent:0;text-align:start;text-decoration:none;text-decoration-line:none;text-decoration-style:solid;text-decoration-color:#000000;letter-spacing:normal;word-spacing:normal;text-transform:none;writing-mode:lr-tb;direction:ltr;text-orientation:mixed;dominant-baseline:auto;baseline-shift:baseline;text-anchor:start;white-space:normal;shape-padding:0;clip-rule:nonzero;display:inline;overflow:visible;visibility:visible;opacity:0.2;isolation:auto;mix-blend-mode:normal;color-interpolation:sRGB;color-interpolation-filters:linearRGB;solid-color:#000000;solid-opacity:1;vector-effect:none;fill:#000000;fill-opacity:1;fill-rule:nonzero;stroke:none;stroke-width:1.0006907;stroke-linecap:round;stroke-linejoin:round;stroke-miterlimit:4;stroke-dasharray:none;stroke-dashoffset:0;stroke-opacity:1;color-rendering:auto;image-rendering:auto;shape-rendering:auto;text-rendering:auto;enable-background:accumulate;filter:url(#filter835)"
     d="m 16.836306,8.5037792 c -0.283131,-0.010794 -0.567924,-0.00651 -0.853516,0.013672 a 0.49792399,0.50330224 0 1 0 0.07031,1.0039063 c 1.999675,-0.1413401 3.959929,0.5923535 5.384766,2.0175775 1.424836,1.425224 2.17357,3.403141 2.054688,5.425782 a 0.49791498,0.50329313 0 1 0 0.99414,0.05859 c 0.01697,-0.288873 0.01751,-0.575232 0.0039,-0.861329 -0.09514,-2.002673 -0.929048,-3.909135 -2.353507,-5.33398 C 20.71263,9.4031527 18.818216,8.5793353 16.836306,8.5037792 Z m -0.365235,2.9960938 c -1.314941,0.0024 -2.586205,0.522927 -3.523437,1.462891 -0.937254,0.939941 -1.451912,2.209912 -1.445313,3.519531 9.44e-4,0.187087 0.01266,0.37459 0.03516,0.5625 a 0.4979601,0.49593692 0 1 0 0.988282,-0.117188 c -0.144072,-1.2033 0.273481,-2.40575 1.130859,-3.265625 0.857355,-0.859899 2.058396,-1.281563 3.267578,-1.146484 a 0.49808729,0.49606359 0 1 0 0.111324,-0.984375 c -0.188831,-0.0211 -0.376604,-0.03159 -0.564453,-0.03125 z M 9.0277118,15.49792 a 0.49889536,0.50328986 0 0 0 -0.5136719,0.474609 c -0.1360976,2.310959 0.7223562,4.568884 2.3535161,6.197266 1.631183,1.628357 3.878735,2.470084 6.167968,2.308594 a 0.49890424,0.50329883 0 0 0 0.464844,-0.5 0.49890424,0.50329883 0 0 0 -0.535156,-0.503907 C 14.961601,23.61582 12.996368,22.882117 11.568727,21.456904 10.141098,20.031678 9.3910164,18.05375 9.5101336,16.031123 A 0.49889536,0.50328986 0 0 0 9.0277118,15.49792 Z m 11.9355472,0 a 0.49994779,0.49593692 0 0 0 -0.488282,0.574219 c 0.144646,1.203301 -0.273965,2.405749 -1.134765,3.265625 -0.860799,0.859877 -2.06724,1.281567 -3.28125,1.146484 a 0.50007549,0.49606359 0 0 0 -0.556641,0.5 0.50007549,0.49606359 0 0 0 0.445313,0.484375 c 1.51667,0.168756 3.028115,-0.357397 4.103515,-1.431641 1.075397,-1.074246 1.596717,-2.578748 1.416016,-4.082031 A 0.49994779,0.49593692 0 0 0 20.963259,15.49792 Z" />
  <path
     id="path847"
     style="color:#000000;font-style:normal;font-variant:normal;font-weight:normal;font-stretch:normal;font-size:medium;line-height:normal;font-family:sans-serif;font-variant-ligatures:normal;font-variant-position:normal;font-variant-caps:normal;font-variant-numeric:normal;font-variant-alternates:normal;font-feature-settings:normal;text-indent:0;text-align:start;text-decoration:none;text-decoration-line:none;text-decoration-style:solid;text-decoration-color:#000000;letter-spacing:normal;word-spacing:normal;text-transform:none;writing-mode:lr-tb;direction:ltr;text-orientation:mixed;dominant-baseline:auto;baseline-shift:baseline;text-anchor:start;white-space:normal;shape-padding:0;clip-rule:nonzero;display:inline;overflow:visible;visibility:visible;opacity:1;isolation:auto;mix-blend-mode:normal;color-interpolation:sRGB;color-interpolation-filters:linearRGB;solid-color:#000000;solid-opacity:1;vector-effect:none;fill:#303446;fill-opacity:1;fill-rule:nonzero;stroke:none;stroke-width:1.0006907;stroke-linecap:round;stroke-linejoin:round;stroke-miterlimit:4;stroke-dasharray:none;stroke-dashoffset:0;stroke-opacity:1;color-rendering:auto;image-rendering:auto;shape-rendering:auto;text-rendering:auto;enable-background:accumulate"
     d="M 16.335938 8.0039062 C 16.052807 7.9931125 15.768014 7.9973919 15.482422 8.0175781 A 0.49792399 0.50330224 0 1 0 15.552734 9.0214844 C 17.552409 8.8801443 19.512663 9.6138376 20.9375 11.039062 C 22.362336 12.464286 23.11107 14.442203 22.992188 16.464844 A 0.49791498 0.50329313 0 1 0 23.986328 16.523438 C 24.003298 16.234565 24.003834 15.948206 23.990234 15.662109 C 23.895083 13.659432 23.061178 11.75297 21.636719 10.328125 C 20.212262 8.9032797 18.317848 8.0794623 16.335938 8.0039062 z M 15.970703 11 C 14.655762 11.002356 13.384498 11.522927 12.447266 12.462891 C 11.510012 13.402832 10.995354 14.672803 11.001953 15.982422 C 11.002897 16.169509 11.014609 16.357012 11.037109 16.544922 A 0.4979601 0.49593692 0 1 0 12.025391 16.427734 C 11.881319 15.224434 12.298872 14.021984 13.15625 13.162109 C 14.013605 12.30221 15.214646 11.880546 16.423828 12.015625 A 0.49808729 0.49606359 0 1 0 16.535156 11.03125 C 16.346325 11.010155 16.158552 10.999663 15.970703 11 z M 8.5273438 14.998047 A 0.49889536 0.50328986 0 0 0 8.0136719 15.472656 C 7.8775743 17.783615 8.7360281 20.04154 10.367188 21.669922 C 11.998371 23.298279 14.245923 24.140006 16.535156 23.978516 A 0.49890424 0.50329883 0 0 0 17 23.478516 A 0.49890424 0.50329883 0 0 0 16.464844 22.974609 C 14.461233 23.115947 12.496 22.382244 11.068359 20.957031 C 9.6407298 19.531805 8.8906484 17.553877 9.0097656 15.53125 A 0.49889536 0.50328986 0 0 0 8.5273438 14.998047 z M 20.462891 14.998047 A 0.49994779 0.49593692 0 0 0 19.974609 15.572266 C 20.119255 16.775567 19.700644 17.978015 18.839844 18.837891 C 17.979045 19.697768 16.772604 20.119458 15.558594 19.984375 A 0.50007549 0.49606359 0 0 0 15.001953 20.484375 A 0.50007549 0.49606359 0 0 0 15.447266 20.96875 C 16.963936 21.137506 18.475381 20.611353 19.550781 19.537109 C 20.626178 18.462863 21.147498 16.958361 20.966797 15.455078 A 0.49994779 0.49593692 0 0 0 20.462891 14.998047 z" />
</svg>

<svg xmlns="http://www.w3.org/2000/svg" width="32" height="32">
    <defs>
        <filter id="b" width="1.144" height="1.144" x="-.072" y="-.072" style="color-interpolation-filters:sRGB">
            <feGaussianBlur stdDeviation=".48"/>
        </filter>
        <filter id="a" width="1.144" height="1.144" x="-.072" y="-.072" style="color-interpolation-filters:sRGB">
            <feGaussianBlur stdDeviation=".66"/>
        </filter>
    </defs>
    <circle cx="16.5" cy="16.5" r="11" style="opacity:.2;fill:#000;fill-opacity:1;stroke:none;stroke-width:2.19999981;stroke-linecap:round;stroke-linejoin:round;stroke-miterlimit:4;stroke-dasharray:none;stroke-opacity:1;filter:url(#a)"/>
    <circle cx="16" cy="16" r="11" style="opacity:1;fill:#303446;fill-opacity:1;stroke:none;stroke-width:2.19999981;stroke-linecap:round;stroke-linejoin:round;stroke-miterlimit:4;stroke-dasharray:none;stroke-opacity:1"/>
    <circle cx="16" cy="16" r="10" style="opacity:1;fill:#e5c890;fill-opacity:1;stroke:none;stroke-width:1.99999988;stroke-linecap:round;stroke-linejoin:round;stroke-miterlimit:4;stroke-dasharray:none;stroke-opacity:1"/>
    <path d="M26 16a10 10 0 0 1-10 10A10 10 0 0 1 6 16 10 10 0 0 1 16 6a10 10 0 0 1 10 10" style="opacity:.2;fill:#e5c890;fill-opacity:1;stroke:none;stroke-width:3.63636;stroke-linecap:round;stroke-linejoin:round;stroke-miterlimit:4;stroke-dasharray:none;stroke-opacity:1"/>
    <path d="M16.836 8.504a8 8 0 0 0-.853.013.498.503 0 1 0 .07 1.004c2-.141 3.96.593 5.385 2.018a7.1 7.1 0 0 1 2.055 5.426.498.503 0 1 0 .994.058q.024-.433.004-.861a8.1 8.1 0 0 0-2.354-5.334 7.92 7.92 0 0 0-5.3-2.324m-.365 2.996a5 5 0 0 0-3.523 1.463 4.95 4.95 0 0 0-1.41 4.082.498.496 0 1 0 .988-.117 3.96 3.96 0 0 1 1.13-3.266 3.99 3.99 0 0 1 3.268-1.147.498.496 0 1 0 .112-.984 5 5 0 0 0-.565-.031m-7.443 3.998a.499.503 0 0 0-.514.475 8.1 8.1 0 0 0 2.354 6.197 7.94 7.94 0 0 0 6.168 2.308.499.503 0 0 0 .464-.5.499.503 0 0 0-.535-.504 6.94 6.94 0 0 1-5.396-2.017 7.08 7.08 0 0 1-2.06-5.427.499.503 0 0 0-.482-.533m11.935 0a.5.496 0 0 0-.488.574 3.95 3.95 0 0 1-1.135 3.266 4.01 4.01 0 0 1-3.281 1.146.5.496 0 0 0-.557.5.5.496 0 0 0 .446.485 5.02 5.02 0 0 0 4.103-1.432 4.94 4.94 0 0 0 1.416-4.082.5.496 0 0 0-.504-.457" style="color:#000;font-style:normal;font-variant:normal;font-weight:400;font-stretch:normal;font-size:medium;line-height:normal;font-family:sans-serif;font-variant-ligatures:normal;font-variant-position:normal;font-variant-caps:normal;font-variant-numeric:normal;font-variant-alternates:normal;font-feature-settings:normal;text-indent:0;text-align:start;text-decoration:none;text-decoration-line:none;text-decoration-style:solid;text-decoration-color:#000;letter-spacing:normal;word-spacing:normal;text-transform:none;writing-mode:lr-tb;direction:ltr;text-orientation:mixed;dominant-baseline:auto;baseline-shift:baseline;text-anchor:start;white-space:normal;shape-padding:0;clip-rule:nonzero;display:inline;overflow:visible;visibility:visible;opacity:.2;isolation:auto;mix-blend-mode:normal;color-interpolation:sRGB;color-interpolation-filters:linearRGB;solid-color:#000;solid-opacity:1;vector-effect:none;fill:#000;fill-opacity:1;fill-rule:nonzero;stroke:none;stroke-width:1.0006907;stroke-linecap:round;stroke-linejoin:round;stroke-miterlimit:4;stroke-dasharray:none;stroke-dashoffset:0;stroke-opacity:1;color-rendering:auto;image-rendering:auto;shape-rendering:auto;text-rendering:auto;enable-background:accumulate;filter:url(#b)"/>
    <path d="M16.336 8.004a8 8 0 0 0-.854.014.498.503 0 1 0 .07 1.003c2-.14 3.96.593 5.386 2.018a7.1 7.1 0 0 1 2.054 5.426.498.503 0 1 0 .994.058q.025-.432.004-.86a8.1 8.1 0 0 0-2.353-5.335 7.92 7.92 0 0 0-5.301-2.324M15.97 11a5 5 0 0 0-3.524 1.463 4.95 4.95 0 0 0-1.41 4.082.498.496 0 1 0 .988-.117 3.96 3.96 0 0 1 1.131-3.266 3.99 3.99 0 0 1 3.268-1.146.498.496 0 1 0 .111-.985A5 5 0 0 0 15.97 11m-7.444 3.998a.499.503 0 0 0-.513.475 8.1 8.1 0 0 0 2.353 6.197 7.94 7.94 0 0 0 6.168 2.309.499.503 0 0 0 .465-.5.499.503 0 0 0-.535-.504 6.94 6.94 0 0 1-5.397-2.018 7.08 7.08 0 0 1-2.058-5.426.499.503 0 0 0-.483-.533m11.936 0a.5.496 0 0 0-.488.574 3.95 3.95 0 0 1-1.135 3.266 4.01 4.01 0 0 1-3.281 1.146.5.496 0 0 0-.557.5.5.496 0 0 0 .445.485 5.02 5.02 0 0 0 4.104-1.432 4.94 4.94 0 0 0 1.416-4.082.5.496 0 0 0-.504-.457" style="color:#000;font-style:normal;font-variant:normal;font-weight:400;font-stretch:normal;font-size:medium;line-height:normal;font-family:sans-serif;font-variant-ligatures:normal;font-variant-position:normal;font-variant-caps:normal;font-variant-numeric:normal;font-variant-alternates:normal;font-feature-settings:normal;text-indent:0;text-align:start;text-decoration:none;text-decoration-line:none;text-decoration-style:solid;text-decoration-color:#000;letter-spacing:normal;word-spacing:normal;text-transform:none;writing-mode:lr-tb;direction:ltr;text-orientation:mixed;dominant-baseline:auto;baseline-shift:baseline;text-anchor:start;white-space:normal;shape-padding:0;clip-rule:nonzero;display:inline;overflow:visible;visibility:visible;opacity:1;isolation:auto;mix-blend-mode:normal;color-interpolation:sRGB;color-interpolation-filters:linearRGB;solid-color:#000;solid-opacity:1;vector-effect:none;fill:#303446;fill-opacity:1;fill-rule:nonzero;stroke:none;stroke-width:1.0006907;stroke-linecap:round;stroke-linejoin:round;stroke-miterlimit:4;stroke-dasharray:none;stroke-dashoffset:0;stroke-opacity:1;color-rendering:auto;image-rendering:auto;shape-rendering:auto;text-rendering:auto;enable-background:accumulate"/>
</svg>
